X:290
T: Denis Murphy's Slide #2
S: "Johnny O'Leary of Sliabh Luachra" (#74)
Z: B.Black
L: 1/8
M: 12/8
Q: 350
R: slide
K: D
A3 ADA BBA G2E|AGE G2E D2E GEG|
A z A AGA BBA G2B|AGE G/A/GE D3 D3 :|
d3 AFA B/c/BA G2G|AGE G/A/GE D2E G2G|
d2d AFA B/c/BA G2G|AGE EGE D3 D3 :|

